X:1
T:Zwölf Lieder
T:Ferne
T:Felix Mendelssohn
T:Johann Gustav Droysen
T:Ferne
T:CPDL - Creative Commons Attribution Non Commercial 3.0
C:Felix Mendelssohn
Z:Johann Gustav Droysen
Z:CPDL - Creative Commons Attribution Non Commercial 3.0
%%score [ ( 1 2 ) ( 3 4 ) ]
L:1/8
Q:1/4=100
M:4/4
K:F
V:1 treble nm="Sopran\nAlt"
V:2 treble 
V:3 bass nm="Tenor\nBass"
V:4 bass 
V:1
!p!"^Lebhaft" F!<(!AB | c2!<)! c2!mf! f3 g |!>(! f4 e2!>)! z2 |!pp! G4 A2 B2 | A4 z!p! cBA | %5
w: 1.  In wei- te|Fer- ne will ich|träu- men,|da, wo du|weilst, wo aus den|
w: 2. Will mit dir|durch die Ber- ge|strei- fen,|da, wo du|weilst, wo auf dem|
w: 3. Und heim- lich|will ich wei- ter|den- ken:|wenn du heim-|kehrst, es mag die|
!<(! G3 G!<)! A2 B2 |!>(! !>!B2 A2!>)! z!p! cBA |!<(! G3 G!<)! A2 A2 | %8
w: schnee- ig hel- len|Räu- men die Bä- che|in die See- en|
w: Eis- feld Gem- sen|schwei- fen, im war- men|Ta- le Fei- gen|
w: Zeit mich nicht be-|trü- ben, wir sind in|Treu- e uns ver-|
!>(! !>!c2 B2!>)!"^da,\nda,\nwenn" z4 |!mf! d4 c2 B2 |!>(! A6!>)!"^da,\nda,\nwenn," z2 | %11
w: schäu- men,|da, wo du|weilst,|
w: rei- fen,|da, wo du|weilst,|
w: blie- ben,|wenn du heim-|kehrst,|
!mf! G4"^dim." A2 B2 |!p! A6 z2 |!mf!!<(! f4!<)! e2 d2 |!f! c6 z2 |!p!"^dim.   e   rit." c4 c2 c2 | %16
w: da, wo du|weilst,|da, wo du|weilst,|da, wo du|
w: da, wo du|weilst,|da, wo du|weilst,|da, wo du|
w: wenn du heim-|kehrst,|wenn du heim-|kehrst,|wenn du heim-|
!pp! !fermata!c4 !fermata!z |] %17
w: weilst.|
w: weilst.|
w: kehrst.|
V:2
 FFF | F2 G2 G3 G | G4 G2 x2 | E4 F2 E2 | F4 x AGF | F3 F F2 G2 | G2 F2 x AGF | F3 F F2 F2 | %8
w: ||||||||
w: ||||||||
w: ||||||||
 F2 F2 x4 | F4 F2 F2 | F6 x2 | E4 F2 G2 | F4!mf! F4- | F4 F2 FG | A4 (G2 F2) | E4 F2 G2 | F4 x |] %17
w: ||||* da,||* da, _|_ _ _||
w: ||||* da,||* da, _|_ _ _||
w: ||||* wenn||* wenn, _|_ _ _||
V:3
!p! F,!<(!F,G, | A,2!<)! C2!mf! =B,3 B, |!>(! D4 C2!>)! z2 |!pp! C4 C2 C2 | C4 z!p! A,B,C | %5
!<(! D3 D!<)! C2 C2 |!>(! !>!C2 C2!>)! z!p! A,B,C |!<(! D3 D!<)! C2 C2 | %8
!>(! !>!A,2 B,2!>)!!mf! F4- |!mf! F4 =E2 D2 |!>(! C6!>)! z2 |!mf! C4"^dim." C2 C2 |!p! C6 z2 | %13
!mf!!<(! D4!<)! C2 B,2 |!f! (A,2 C2) (B,2 A,2) |!p!"^dim.   e   rit." G,4 A,2 B,2 | %16
!pp! !fermata!A,4 !fermata!z |] %17
V:4
 F,F,F, | F,2 E,2 D,3 D, | =B,,4 C,2 x2 | (C2 _B,2) A,2 G,2 | F,4 x F,G,A, | B,3 B,, C,2 C,2 | %6
 E,2 F,2 x F,G,A, | B,3 B,, C,2 _E,2 | _E,2 D,2 z4 | B,4 B,2 B,2 | F,4 (A,2 B,2) | C4 C,2 C,2 | %12
 F,6 x2 | B,,4 C,2 D,E, | F,6 z2 | C,4 C,2 C,2 | [F,,F,]4 x |] %17

